X: 9
T: The Maid At The Well
R: jig
M: 6/8
L: 1/8
K: Gmaj
GDD EDD|GAB c2 d|edc BcA|BGE EDE|GDD EDD|GAB c2 d|edc BcA|1 AGF ~G3:|2 AGF GB/c/d||gdd edd|gdB c2 d|edc BcA|BGE Eef|gdd edd|gdB c2 d|edc BcA|AGF GB/c/d|gdd edd|gdB c2 d|edc BcA|BGE EDE|GDD EDD|GAB c2 d|edc BcA|AGF ~G3||


Tune 752	Setting 13858

